remix/Finance/percent-line.svg

<svg viewBox="0 0 24 24" fill="currentColor" xmlns="http://www.w3.org/2000/svg"><path d="M17.5049 21.0027C15.5719 21.0027 14.0049 19.4357 14.0049 17.5027C14.0049 15.5697 15.5719 14.0027 17.5049 14.0027C19.4379 14.0027 21.0049 15.5697 21.0049 17.5027C21.0049 19.4357 19.4379 21.0027 17.5049 21.0027ZM17.5049 19.0027C18.3333 19.0027 19.0049 18.3312 19.0049 17.5027C19.0049 16.6743 18.3333 16.0027 17.5049 16.0027C16.6765 16.0027 16.0049 16.6743 16.0049 17.5027C16.0049 18.3312 16.6765 19.0027 17.5049 19.0027ZM6.50488 10.0027C4.57189 10.0027 3.00488 8.43574 3.00488 6.50275C3.00488 4.56975 4.57189 3.00275 6.50488 3.00275C8.43788 3.00275 10.0049 4.56975 10.0049 6.50275C10.0049 8.43574 8.43788 10.0027 6.50488 10.0027ZM6.50488 8.00275C7.33331 8.00275 8.00488 7.33117 8.00488 6.50275C8.00488 5.67432 7.33331 5.00275 6.50488 5.00275C5.67646 5.00275 5.00488 5.67432 5.00488 6.50275C5.00488 7.33117 5.67646 8.00275 6.50488 8.00275ZM19.076 3.51747L20.4902 4.93168L4.93382 20.488L3.5196 19.0738L19.076 3.51747Z"/></svg>

<svg viewBox="0 0 24 24" xmlns="http://www.w3.org/2000/svg"><path fill="none" d="M0 0h24v24H0Z"/><path d="M17.5 21v0c-1.94 0-3.5-1.57-3.5-3.5 0-1.94 1.56-3.5 3.5-3.5v0c1.93 0 3.5 1.56 3.5 3.5 0 1.93-1.57 3.5-3.5 3.5Zm0-2v0c.82 0 1.5-.68 1.5-1.5 0-.83-.68-1.5-1.5-1.5v0c-.83 0-1.5.67-1.5 1.5 0 .82.67 1.5 1.5 1.5Zm-11-9v0C4.56 10 3 8.43 3 6.5 3 4.56 4.56 3 6.5 3v0C8.43 3 10 4.56 10 6.5 10 8.43 8.43 10 6.5 10Zm0-2v0C7.32 8 8 7.32 8 6.5 8 5.67 7.32 5 6.5 5v0C5.67 5 5 5.67 5 6.5 5 7.32 5.67 8 6.5 8ZM19.07 3.51l1.41 1.41L4.92 20.475l-1.42-1.42 15.55-15.56Z"/></svg>
